X:1
T:Young Edward
M:3/4
L:1/8
K:Bb
 FFG| G3 FF D| B,3 FF G| G3 FG G| F3 FF B| B3| cdG| F3 EE F| G3 FF D|\
 B,3||

